X:529
T: "Der Trauernde"
N: Z1209
O: Europa, Mitteleuropa, Steiermark
R: Liebes - Lied, verlassene Liebe
M: 3/4
L: 1/8
K: Eb
E2 | D2FAdf | geB3
c | BAA2AD | E2GB,
E2 | D2FAdf | geB3
c | BAA2AD | E4

@@@ Tune index: 10287
